X:1
T:Heimlicher Liebe Pein
T:Carl Maria von Weber
T:Volkslied
T:Heimlicher Liebe Pein
T:CPDL   —   Creative Commons Attribution Non Commercial 3.0
T:CPDL   —   Creative Commons Attribution Non Commercial 3.0
C:Carl Maria von Weber
Z:CPDL   —   Creative Commons Attribution Non Commercial 3.0
%%score [ ( 1 2 ) ( 3 4 ) ]
L:1/8
Q:1/4=66
M:4/4
K:C
V:1 treble nm="Sopran\nAlt"
V:2 treble 
V:3 bass nm="Tenor\nBass"
V:4 bass 
V:1
"^Sehr langsam" E2 | (e-ee)e e2 ed | c2 c!>(!B A3!>)! A | B-B!<(!BB!<)! d-dcB | %4
w: 1. Mein|Schatz, _ _ der ist auf die|Wan- der- schaft hin, ich|weiß _ a- ber nicht, was ich so|
w: 2.  Als|ich mit mei- nem Schatz ich die|Kirch' woll- te geh'n, viel|fal- sche, fal- sche Zun- gen an der|
w: 3.  Die|Dis- teln und die Dor- nen, die|ste- chen so sehr, die|fal- schen, fal- schen Zun- gen a- ber|
w: 4.  Ach,|herz- * liebs- ter Schatz und ich|bitt' dich noch eins: du|wol- lest auch bei mei- * nem Be-|
!>(! A2 E2!>)! E3!p! E | A2 AA A3!<(! A | c>!<)!c c!>(!_B!>)! A3 A |!<(! A>A A=B!<)! c3 d | %8
w: trau- rig bin, viel-|leicht ist er tot und|liegt in gu- ter Ruh', drum|bring' ich mei- ne Zeit so|
w: Tü- re steh'n; die|Ei- ne red't dies, die|And'- re re- det das, das|mach- te mir gar oft die|
w: noch viel mehr; kein|Feu- er auf Erd, das|bren- net al- so heiß, als|heim- lich stil- le Lieb', die|
w: gräb- nis sein; bei|mei- nem Ge- leit in's|küh- le, küh- le Grab, der-|weil ich dich so treu ge-|
 e2!>(! Bc!>)! !fermata!A2 |] %9
w: trau- rig * zu.|
w: Äug- lein * nass.|
w: nie- mand * weiß.|
w: lie- bet * hab'.|
V:2
 E2 | (E-EE)E A2 ^GG | A2 ^GG A3 E | F-FFF E-EEE | E2 C2 B,3 B, | C2 EE F3 F | G>E FG F3 C | %7
 C>C D^D E3 E | A2 ^G2 E2 |] %9
V:3
 C2 | (C-CC)C E2 EE | E2 E!>(!D C3!>)! A, | A,-A,!<(!A,A,!<)! (^G,B,)A,G, | %4
!>(! A,2 A,2!>)! ^G,3!p! G, | A,2 CC C3!<(! C | C>!<)!G, C!>(!C!>)! C3 A, | %7
!<(! A,>A, A,A,!<)! A,3 B, | CD!>(! E2!>)! !fermata!C2 |] %9
V:4
 A,2 | (A,-A,A,)A, C2 B,B, | A,2 E,E, A,,3 C, | D,-D,D,D, E,-E,E,E, | C,2 A,,2 E,3 E, | %5
 A,,2 A,A, F,3 F, | E,>C, D,E, F,3 F, | F,>F, F,F, E,3 E, | E,2 E,2 A,2 |] %9

